Antu/mimetypes/64/application-x-tzo.svg

<?xml version="1.0" encoding="UTF-8" standalone="no"?>
<svg
   xmlns:osb="http://www.openswatchbook.org/uri/2009/osb"
   xmlns:dc="http://purl.org/dc/elements/1.1/"
   xmlns:cc="http://creativecommons.org/ns#"
   xmlns:rdf="http://www.w3.org/1999/02/22-rdf-syntax-ns#"
   xmlns:svg="http://www.w3.org/2000/svg"
   xmlns="http://www.w3.org/2000/svg"
   xmlns:xlink="http://www.w3.org/1999/xlink"
   xmlns:sodipodi="http://sodipodi.sourceforge.net/DTD/sodipodi-0.dtd"
   xmlns:inkscape="http://www.inkscape.org/namespaces/inkscape"
   width="64"
   viewBox="0 0 64 64"
   height="64"
   id="svg2"
   version="1.1"
   inkscape:version="0.91 r13725"
   sodipodi:docname="application-x-tzo.svg"
   inkscape:export-filename="E:\Usuarios\David\Desktop\android.png"
   inkscape:export-xdpi="90"
   inkscape:export-ydpi="90">
  <metadata
     id="metadata14">
    <rdf:RDF>
      <cc:Work
         rdf:about="">
        <dc:format>image/svg+xml</dc:format>
        <dc:type
           rdf:resource="http://purl.org/dc/dcmitype/StillImage" />
        <dc:title />
      </cc:Work>
    </rdf:RDF>
  </metadata>
  <defs
     id="defs12">
    <linearGradient
       osb:paint="gradient"
       id="linearGradient4207">
      <stop
         id="stop3371"
         offset="0"
         style="stop-color:#3498db;stop-opacity:1;" />
      <stop
         id="stop3373"
         offset="1"
         style="stop-color:#3498db;stop-opacity:0;" />
    </linearGradient>
    <linearGradient
       inkscape:collect="always"
       xlink:href="#linearGradient4422-7"
       id="linearGradient4182"
       x1="-74.929466"
       y1="52.199436"
       x2="-75.259552"
       y2="2.3564887"
       gradientUnits="userSpaceOnUse"
       gradientTransform="matrix(1.0749904,0,0,1.0292896,56.688954,-0.01528526)" />
    <linearGradient
       id="linearGradient4422-7">
      <stop
         id="stop4424-1-2"
         offset="0"
         style="stop-color:#cd2619;stop-opacity:1" />
      <stop
         id="stop4426-90"
         offset="1"
         style="stop-color:#ff5c4d;stop-opacity:1" />
    </linearGradient>
  </defs>
  <sodipodi:namedview
     pagecolor="#747474"
     bordercolor="#666666"
     borderopacity="1"
     objecttolerance="10"
     gridtolerance="10"
     guidetolerance="10"
     inkscape:pageopacity="1"
     inkscape:pageshadow="2"
     inkscape:window-width="1366"
     inkscape:window-height="687"
     id="namedview10"
     showgrid="false"
     inkscape:zoom="5.2716363"
     inkscape:cx="72.209481"
     inkscape:cy="39.251799"
     inkscape:window-x="0"
     inkscape:window-y="0"
     inkscape:window-maximized="1"
     inkscape:current-layer="g4186"
     inkscape:snap-bbox="true"
     inkscape:bbox-nodes="true"
     inkscape:object-nodes="true"
     borderlayer="false"
     showguides="false"
     inkscape:snap-nodes="true"
     inkscape:object-paths="false"
     inkscape:showpageshadow="false"
     showborder="true">
    <inkscape:grid
       type="xygrid"
       id="grid4160"
       visible="true" />
    <sodipodi:guide
       position="28.888657,63.404975"
       orientation="0,35.2"
       id="guide6108" />
    <sodipodi:guide
       position="54,55.679691"
       orientation="51.200004,0"
       id="guide6112" />
    <sodipodi:guide
       position="58.527669,62"
       orientation="0,1"
       id="guide6114"
       inkscape:label=""
       inkscape:color="rgb(0,0,255)" />
    <sodipodi:guide
       position="10,4"
       orientation="-56,0"
       id="guide6116" />
    <sodipodi:guide
       position="11,4"
       orientation="-2.8421709e-014,0"
       id="guide6118" />
    <sodipodi:guide
       position="12,62"
       orientation="0,35.2"
       id="guide6120" />
    <sodipodi:guide
       position="52,2"
       orientation="0,-40"
       id="guide6126" />
    <sodipodi:guide
       position="12,62"
       orientation="0,35.2"
       id="guide6138" />
    <sodipodi:guide
       position="55,3"
       orientation="0,-40"
       id="guide6156" />
    <sodipodi:guide
       position="53,4.3973202"
       orientation="-56,0"
       id="guide6158" />
    <sodipodi:guide
       position="43,48"
       orientation="22,0"
       id="guide4240" />
    <sodipodi:guide
       position="43,26"
       orientation="0,-22"
       id="guide4242" />
    <sodipodi:guide
       position="21,26"
       orientation="-22,0"
       id="guide4244" />
  </sodipodi:namedview>
  <g
     id="g4186"
     transform="translate(56.391766,-0.17677665)">
    <g
       inkscape:transform-center-y="-9.4924686"
       inkscape:transform-center-x="5.4653607"
       inkscape:label="Capa 1"
       id="layer1-4"
       transform="translate(-509.70748,-515.64674)">
      <g
         id="layer1-3-65"
         inkscape:label="Capa 1"
         transform="translate(0.41988239,0.03484499)" />
    </g>
    <g
       id="g4215"
       transform="translate(0,0.26550102)">
      <rect
         style="opacity:1;fill:url(#linearGradient4182);fill-opacity:1;stroke:none;stroke-width:0.30000001;stroke-linecap:round;stroke-linejoin:round;stroke-miterlimit:4;stroke-dasharray:none;stroke-dashoffset:0;stroke-opacity:1"
         id="rect4174"
         width="44"
         height="60.531002"
         x="-46.391766"
         y="1.6457746"
         ry="2.5" />
      <g
         transform="matrix(0.92387261,0,0,0.92387261,-452.63647,-455.19669)"
         id="layer1-5"
         inkscape:label="Capa 1">
        <g
           id="g4414"
           transform="matrix(1.5263052,0,0,1.5263052,376.49864,-1040.1735)">
          <g
             transform="matrix(0.42549858,0,0,0.42549858,-116.82388,804.06163)"
             id="layer1-0"
             inkscape:label="Capa 1">
            <path
               style="opacity:1;fill:#631f19;fill-opacity:1;stroke:none;stroke-width:2.79999995;stroke-miterlimit:4;stroke-dasharray:none;stroke-opacity:0.55026455"
               d="m 23.300781,16.265625 c -0.609399,0 -1.101562,0.49021 -1.101562,1.099609 l 0,19.800782 c 0,0.609399 0.492163,1.099609 1.101562,1.099609 l 17.59961,0 C 41.50979,38.265625 42,37.775415 42,37.166016 l 0,-19.800782 c 0,-0.609399 -0.49021,-1.099609 -1.099609,-1.099609 l -17.59961,0 z m 8.226563,0.611328 1.222656,0 c 0.270771,0 0.490234,0.21751 0.490234,0.488281 l 0,0.123047 c 0,0.270771 -0.219463,0.488281 -0.490234,0.488281 l -1.222656,0 c -0.270771,0 -0.488282,-0.21751 -0.488282,-0.488281 l 0,-0.123047 c 0,-0.270771 0.217511,-0.488281 0.488282,-0.488281 z m -0.0039,1.589844 1.222656,0 c 0.270771,0 0.488281,0.219463 0.488281,0.490234 l 0,0.121094 c 0,0.270771 -0.21751,0.490234 -0.488281,0.490234 l -1.222656,0 c -0.270772,0 -0.488282,-0.219463 -0.488282,-0.490234 l 0,-0.121094 c 0,-0.270771 0.21751,-0.490234 0.488282,-0.490234 z m -0.01367,1.572265 1.222656,0 c 0.270771,0 0.488281,0.217511 0.488281,0.488282 l 0,0.123047 c 0,0.270771 -0.21751,0.488281 -0.488281,0.488281 l -1.222656,0 c -0.270772,0 -0.488282,-0.21751 -0.488282,-0.488281 l 0,-0.123047 c 0,-0.270771 0.21751,-0.488282 0.488282,-0.488282 z m 0.02344,1.636719 1.222656,0 c 0.270772,0 0.490235,0.21751 0.490235,0.488281 l 0,0.123047 c 0,0.270772 -0.219463,0.488282 -0.490235,0.488282 l -1.222656,0 c -0.270771,0 -0.488281,-0.21751 -0.488281,-0.488282 l 0,-0.123047 c 0,-0.270771 0.21751,-0.488281 0.488281,-0.488281 z m 0,1.607422 1.222656,0 c 0.270772,0 0.490235,0.21751 0.490235,0.488281 l 0,0.123047 c 0,0.270771 -0.219463,0.488281 -0.490235,0.488281 l -1.222656,0 c -0.270771,0 -0.488281,-0.21751 -0.488281,-0.488281 l 0,-0.123047 c 0,-0.270771 0.21751,-0.488281 0.488281,-0.488281 z m 0,1.644531 1.222656,0 c 0.270772,0 0.490235,0.219464 0.490235,0.490235 l 0,0.121093 c 0,0.270772 -0.219463,0.490235 -0.490235,0.490235 l -1.222656,0 c -0.270771,0 -0.488281,-0.219463 -0.488281,-0.490235 l 0,-0.121093 c 0,-0.270771 0.21751,-0.490235 0.488281,-0.490235 z m 0.09961,1.664063 0.96875,0 c 0.192704,0 0.34961,0.156207 0.34961,0.349609 l 0,0.695313 0.539062,1.589843 c 0.150849,0.442839 0.07853,0.934794 -0.193359,1.316407 -0.271893,0.380914 -0.712649,0.609375 -1.179687,0.609375 -0.466945,0 -0.90779,-0.228461 -1.179688,-0.609375 -0.271893,-0.381613 -0.344252,-0.873222 -0.193359,-1.316407 l 0.539062,-1.589843 0,-0.695313 c 0,-0.193363 0.156906,-0.349609 0.349609,-0.349609 z m -0.04297,2.328125 -0.181641,0.533203 c -0.07749,0.228822 -0.04062,0.482831 0.09961,0.679687 0.279813,0.392965 0.937029,0.392965 1.216797,0 0.140217,-0.196856 0.179091,-0.451211 0.101563,-0.679687 l -0.181641,-0.533203 -1.054687,0 z"
               transform="matrix(1.8181804,0,0,1.8181804,350.20784,474.22438)"
               id="rect4319"
               inkscape:connector-curvature="0" />
            <g
               transform="translate(-0.71741557,0.01714041)"
               inkscape:label="Capa 1"
               id="layer1-7"
               style="fill:#ffffff;fill-opacity:1" />
          </g>
        </g>
      </g>
    </g>
  </g>
</svg>

<?xml version="1.0" encoding="UTF-8" standalone="no"?>
<svg
   xmlns:osb="http://www.openswatchbook.org/uri/2009/osb"
   xmlns:dc="http://purl.org/dc/elements/1.1/"
   xmlns:cc="http://creativecommons.org/ns#"
   xmlns:rdf="http://www.w3.org/1999/02/22-rdf-syntax-ns#"
   xmlns:svg="http://www.w3.org/2000/svg"
   xmlns="http://www.w3.org/2000/svg"
   xmlns:xlink="http://www.w3.org/1999/xlink"
   xmlns:sodipodi="http://sodipodi.sourceforge.net/DTD/sodipodi-0.dtd"
   xmlns:inkscape="http://www.inkscape.org/namespaces/inkscape"
   width="64"
   viewBox="0 0 64 64"
   height="64"
   id="svg2"
   version="1.1"
   inkscape:version="0.91 r13725"
   sodipodi:docname="application-x-tzo.svg"
   inkscape:export-filename="E:\Usuarios\David\Desktop\android.png"
   inkscape:export-xdpi="90"
   inkscape:export-ydpi="90">
  <metadata
     id="metadata14">
    <rdf:RDF>
      <cc:Work
         rdf:about="">
        <dc:format>image/svg+xml</dc:format>
        <dc:type
           rdf:resource="http://purl.org/dc/dcmitype/StillImage" />
        <dc:title />
      </cc:Work>
    </rdf:RDF>
  </metadata>
  <defs
     id="defs12">
    <linearGradient
       osb:paint="gradient"
       id="linearGradient4207">
      <stop
         id="stop3371"
         offset="0"
         style="stop-color:#3498db;stop-opacity:1;" />
      <stop
         id="stop3373"
         offset="1"
         style="stop-color:#3498db;stop-opacity:0;" />
    </linearGradient>
    <linearGradient
       inkscape:collect="always"
       xlink:href="#linearGradient4422-7"
       id="linearGradient4182"
       x1="-74.929466"
       y1="52.199436"
       x2="-75.259552"
       y2="2.3564887"
       gradientUnits="userSpaceOnUse"
       gradientTransform="matrix(1.0749904,0,0,1.0292896,56.688954,-0.01528455)" />
    <linearGradient
       id="linearGradient4422-7">
      <stop
         id="stop4424-1-2"
         offset="0"
         style="stop-color:#cd2619;stop-opacity:1" />
      <stop
         id="stop4426-90"
         offset="1"
         style="stop-color:#ff5c4d;stop-opacity:1" />
    </linearGradient>
  </defs>
  <sodipodi:namedview
     pagecolor="#747474"
     bordercolor="#666666"
     borderopacity="1"
     objecttolerance="10"
     gridtolerance="10"
     guidetolerance="10"
     inkscape:pageopacity="1"
     inkscape:pageshadow="2"
     inkscape:window-width="1366"
     inkscape:window-height="633"
     id="namedview10"
     showgrid="false"
     inkscape:zoom="14.910439"
     inkscape:cx="35.987331"
     inkscape:cy="40.446391"
     inkscape:window-x="0"
     inkscape:window-y="33"
     inkscape:window-maximized="1"
     inkscape:current-layer="g4215"
     inkscape:snap-bbox="true"
     inkscape:bbox-nodes="true"
     inkscape:object-nodes="true"
     borderlayer="false"
     showguides="false"
     inkscape:snap-nodes="true"
     inkscape:object-paths="false"
     inkscape:showpageshadow="false"
     showborder="true">
    <inkscape:grid
       type="xygrid"
       id="grid4160"
       visible="true" />
    <sodipodi:guide
       position="28.888657,63.404975"
       orientation="0,35.2"
       id="guide6108" />
    <sodipodi:guide
       position="54,55.679691"
       orientation="51.200004,0"
       id="guide6112" />
    <sodipodi:guide
       position="58.527669,62"
       orientation="0,1"
       id="guide6114"
       inkscape:label=""
       inkscape:color="rgb(0,0,255)" />
    <sodipodi:guide
       position="10,4"
       orientation="-56,0"
       id="guide6116" />
    <sodipodi:guide
       position="11,4"
       orientation="-2.8421709e-014,0"
       id="guide6118" />
    <sodipodi:guide
       position="12,62"
       orientation="0,35.2"
       id="guide6120" />
    <sodipodi:guide
       position="52,2"
       orientation="0,-40"
       id="guide6126" />
    <sodipodi:guide
       position="12,62"
       orientation="0,35.2"
       id="guide6138" />
    <sodipodi:guide
       position="55,3"
       orientation="0,-40"
       id="guide6156" />
    <sodipodi:guide
       position="53,4.3973202"
       orientation="-56,0"
       id="guide6158" />
    <sodipodi:guide
       position="43,48"
       orientation="22,0"
       id="guide4240" />
    <sodipodi:guide
       position="43,26"
       orientation="0,-22"
       id="guide4242" />
    <sodipodi:guide
       position="21,26"
       orientation="-22,0"
       id="guide4244" />
  </sodipodi:namedview>
  <g
     id="g4186"
     transform="translate(56.391766,-0.17677665)">
    <g
       inkscape:transform-center-y="-9.4924686"
       inkscape:transform-center-x="5.4653607"
       inkscape:label="Capa 1"
       id="layer1-4"
       transform="translate(-509.70748,-515.64674)">
      <g
         id="layer1-3-65"
         inkscape:label="Capa 1"
         transform="translate(0.41988239,0.03484499)" />
    </g>
    <g
       id="g4215"
       transform="translate(0,0.26550102)">
      <rect
         style="opacity:1;fill:#631f19;fill-opacity:1;stroke:none;stroke-width:0.185;stroke-linecap:round;stroke-linejoin:round;stroke-miterlimit:4;stroke-dasharray:none;stroke-dashoffset:0;stroke-opacity:1"
         id="rect4162"
         width="44"
         height="7.6992903"
         x="-46.391766"
         y="54.477486"
         ry="2.5" />
      <rect
         style="opacity:1;fill:url(#linearGradient4182);fill-opacity:1;stroke:none;stroke-width:0.30000001;stroke-linecap:round;stroke-linejoin:round;stroke-miterlimit:4;stroke-dasharray:none;stroke-dashoffset:0;stroke-opacity:1"
         id="rect4174"
         width="44"
         height="52.831711"
         x="-46.391766"
         y="1.6457753"
         ry="2.5" />
      <rect
         style="opacity:1;fill:#631f19;fill-opacity:1;stroke:none;stroke-width:0.185;stroke-linecap:round;stroke-linejoin:round;stroke-miterlimit:4;stroke-dasharray:none;stroke-dashoffset:0;stroke-opacity:1"
         id="rect4184"
         width="44"
         height="7.9118414"
         x="-46.391766"
         y="51.264462"
         ry="0" />
      <g
         transform="matrix(0.81954967,0,0,0.81954967,-3.634286,10.121829)"
         id="text4161"
         style="font-style:normal;font-weight:normal;font-size:9.36996746px;line-height:125%;font-family:sans-serif;letter-spacing:0px;word-spacing:0px;fill:#ffffff;fill-opacity:1;stroke:none;stroke-width:1px;stroke-linecap:butt;stroke-linejoin:miter;stroke-opacity:1">
        <g
           id="text4269"
           style="font-style:normal;font-weight:normal;font-size:13.75px;line-height:125%;font-family:sans-serif;letter-spacing:0px;word-spacing:0px;fill:#ffffff;fill-opacity:1;stroke:none;stroke-width:1px;stroke-linecap:butt;stroke-linejoin:miter;stroke-opacity:1">
          <path
             inkscape:connector-curvature="0"
             id="path4214"
             style="font-style:normal;font-variant:normal;font-weight:normal;font-stretch:normal;font-size:10px;font-family:'Product Sans';-inkscape-font-specification:'Product Sans';fill:#ffffff;fill-opacity:1"
             d="m -29.663582,59.98451 q -0.77,0 -1.18,-0.41 -0.4,-0.41 -0.4,-1.16 l 0,-2.57 -0.86,0 0,-0.84 0.86,0 0,-1.5 0.92,0 0,1.5 1.2,0 0,0.84 -1.2,0 0,2.5 q 0,0.8 0.66,0.8 0.25,0 0.42,-0.08 l 0.32,0.79 q -0.3,0.13 -0.74,0.13 z" />
          <path
             inkscape:connector-curvature="0"
             id="path4216"
             style="font-style:normal;font-variant:normal;font-weight:normal;font-stretch:normal;font-size:10px;font-family:'Product Sans';-inkscape-font-specification:'Product Sans';fill:#ffffff;fill-opacity:1"
             d="m -28.39077,59.90451 0,-0.8 2.79,-3.26 -2.71,0 0,-0.84 3.84,0 0,0.8 -2.79,3.26 2.83,0 0,0.84 -3.96,0 z" />
          <path
             inkscape:connector-curvature="0"
             id="path4218"
             style="font-style:normal;font-variant:normal;font-weight:normal;font-stretch:normal;font-size:10px;font-family:'Product Sans';-inkscape-font-specification:'Product Sans';fill:#ffffff;fill-opacity:1"
             d="m -23.209051,55.59451 q 0.71,-0.75 1.81,-0.75 1.1,0 1.81,0.75 0.71,0.74 0.71,1.86 0,1.12 -0.71,1.87 -0.71,0.74 -1.81,0.74 -1.1,0 -1.81,-0.74 -0.71,-0.75 -0.71,-1.87 0,-1.12 0.71,-1.86 z m 0.68,3.15 q 0.48,0.48 1.13,0.48 0.65,0 1.12,-0.48 0.48,-0.49 0.48,-1.29 0,-0.8 -0.48,-1.28 -0.47,-0.49 -1.12,-0.49 -0.65,0 -1.13,0.49 -0.47,0.48 -0.47,1.28 0,0.8 0.47,1.29 z" />
        </g>
      </g>
      <g
         transform="matrix(0.84688321,0,0,0.84688321,-416.84979,-419.33873)"
         id="layer1-5"
         inkscape:label="Capa 1">
        <g
           id="g4414"
           transform="matrix(1.5263052,0,0,1.5263052,376.49864,-1040.1735)">
          <g
             transform="matrix(0.42549858,0,0,0.42549858,-116.82388,804.06163)"
             id="layer1-0"
             inkscape:label="Capa 1">
            <path
               style="opacity:1;fill:#631f19;fill-opacity:1;stroke:none;stroke-width:2.79999995;stroke-miterlimit:4;stroke-dasharray:none;stroke-opacity:0.55026455"
               d="M 23.300781 16.265625 C 22.691382 16.265625 22.199219 16.755835 22.199219 17.365234 L 22.199219 37.166016 C 22.199219 37.775415 22.691382 38.265625 23.300781 38.265625 L 40.900391 38.265625 C 41.50979 38.265625 42 37.775415 42 37.166016 L 42 17.365234 C 42 16.755835 41.50979 16.265625 40.900391 16.265625 L 23.300781 16.265625 z M 31.527344 16.876953 L 32.75 16.876953 C 33.020771 16.876953 33.240234 17.094463 33.240234 17.365234 L 33.240234 17.488281 C 33.240234 17.759052 33.020771 17.976562 32.75 17.976562 L 31.527344 17.976562 C 31.256573 17.976562 31.039062 17.759052 31.039062 17.488281 L 31.039062 17.365234 C 31.039062 17.094463 31.256573 16.876953 31.527344 16.876953 z M 31.523438 18.466797 L 32.746094 18.466797 C 33.016865 18.466797 33.234375 18.68626 33.234375 18.957031 L 33.234375 19.078125 C 33.234375 19.348896 33.016865 19.568359 32.746094 19.568359 L 31.523438 19.568359 C 31.252666 19.568359 31.035156 19.348896 31.035156 19.078125 L 31.035156 18.957031 C 31.035156 18.68626 31.252666 18.466797 31.523438 18.466797 z M 31.509766 20.039062 L 32.732422 20.039062 C 33.003193 20.039062 33.220703 20.256573 33.220703 20.527344 L 33.220703 20.650391 C 33.220703 20.921162 33.003193 21.138672 32.732422 21.138672 L 31.509766 21.138672 C 31.238994 21.138672 31.021484 20.921162 31.021484 20.650391 L 31.021484 20.527344 C 31.021484 20.256573 31.238994 20.039062 31.509766 20.039062 z M 31.533203 21.675781 L 32.755859 21.675781 C 33.026631 21.675781 33.246094 21.893291 33.246094 22.164062 L 33.246094 22.287109 C 33.246094 22.557881 33.026631 22.775391 32.755859 22.775391 L 31.533203 22.775391 C 31.262432 22.775391 31.044922 22.557881 31.044922 22.287109 L 31.044922 22.164062 C 31.044922 21.893291 31.262432 21.675781 31.533203 21.675781 z M 31.533203 23.283203 L 32.755859 23.283203 C 33.026631 23.283203 33.246094 23.500713 33.246094 23.771484 L 33.246094 23.894531 C 33.246094 24.165302 33.026631 24.382812 32.755859 24.382812 L 31.533203 24.382812 C 31.262432 24.382812 31.044922 24.165302 31.044922 23.894531 L 31.044922 23.771484 C 31.044922 23.500713 31.262432 23.283203 31.533203 23.283203 z M 31.533203 24.927734 L 32.755859 24.927734 C 33.026631 24.927734 33.246094 25.147198 33.246094 25.417969 L 33.246094 25.539062 C 33.246094 25.809834 33.026631 26.029297 32.755859 26.029297 L 31.533203 26.029297 C 31.262432 26.029297 31.044922 25.809834 31.044922 25.539062 L 31.044922 25.417969 C 31.044922 25.147198 31.262432 24.927734 31.533203 24.927734 z M 31.632812 26.591797 L 32.601562 26.591797 C 32.794266 26.591797 32.951172 26.748004 32.951172 26.941406 L 32.951172 27.636719 L 33.490234 29.226562 C 33.641083 29.669401 33.568768 30.161356 33.296875 30.542969 C 33.024982 30.923883 32.584226 31.152344 32.117188 31.152344 C 31.650243 31.152344 31.209398 30.923883 30.9375 30.542969 C 30.665607 30.161356 30.593248 29.669747 30.744141 29.226562 L 31.283203 27.636719 L 31.283203 26.941406 C 31.283203 26.748043 31.440109 26.591797 31.632812 26.591797 z M 31.589844 28.919922 L 31.408203 29.453125 C 31.330708 29.681947 31.367579 29.935956 31.507812 30.132812 C 31.787625 30.525777 32.444841 30.525777 32.724609 30.132812 C 32.864826 29.935956 32.9037 29.681601 32.826172 29.453125 L 32.644531 28.919922 L 31.589844 28.919922 z "
               transform="matrix(1.8181804,0,0,1.8181804,350.20784,474.22438)"
               id="rect4319" />
            <g
               transform="translate(-0.71741557,0.01714041)"
               inkscape:label="Capa 1"
               id="layer1-7"
               style="fill:#ffffff;fill-opacity:1" />
          </g>
        </g>
      </g>
    </g>
  </g>
</svg>
